X: 1
T: The Golden Stud
R: reel
M: 4/4
L: 1/8
K: Emin
|:E2 GE F2 FA |G2 GB AB cA |B2 GB AG FA |GE FD ED B,D |
E2 GE F2 FA |G2 GB AB cA |(3BcB GB AG FA |GE FD E4 :|
|:c2 AB cB Ac |B2 Bc BA GB |(3ABA FG AG FA |GE FD E2 AB |
c2 AB cB Ac |(3BcB dB BA GB |(3ABA FG AG FA |GE FD E4:|


Tune 4740	Setting 27428

